X: 2758
T: Banks Of The Ness
R: waltz
M: 3/4
K: Amajor
|:ed|c3 B ce|A4 ed|c3 B ce|F6|
B3 c de|c3 A GA|FG AB BA|B4:|
|:AG|F4 cd|c4 BA|G4 cz|c4 AG|
F4 dz|d4 ed|c3 B ce|B4:|

